X: 15884
T: Graham's Flat
R: jig
M: 6/8
K: Gmajor
~G3 dBG|dBG dcA|~G3 dBG|AFD cAF|
~G3 dcA|~G g2z|e/f/ge dBG|1 ~A3 AGE:|2 ~A3 AGd||
~e3 edB|~e3 edB|dBA ~G3|dBd dBd|
~e3 edB|ege ega|bag agf|gfd edB:|

